storage/app/icons/phosphoricons/fill/piano-keys-fill.svg

<svg xmlns="http://www.w3.org/2000/svg" fill="currentColor" viewBox="0 0 256 256"><path d="M208 32H48a16 16 0 0 0-16 16v160a16 16 0 0 0 16 16h160a16 16 0 0 0 16-16V48a16 16 0 0 0-16-16M88 208H48V48h24v96a8 8 0 0 0 8 8h8Zm64 0h-48v-56h8a8 8 0 0 0 8-8V48h16v96a8 8 0 0 0 8 8h8Zm56 0h-40v-56h8a8 8 0 0 0 8-8V48h24z"/></svg>

<svg xmlns="http://www.w3.org/2000/svg" viewBox="0 0 256 256" fill="currentColor"><path d="M208,32H48A16,16,0,0,0,32,48V208a16,16,0,0,0,16,16H208a16,16,0,0,0,16-16V48A16,16,0,0,0,208,32ZM88,208H48V48H72v96a8,8,0,0,0,8,8h8Zm64,0H104V152h8a8,8,0,0,0,8-8V48h16v96a8,8,0,0,0,8,8h8Zm56,0H168V152h8a8,8,0,0,0,8-8V48h24V208Z"/></svg>
